icons/trpc-filled.svg

<svg width="256" height="256" viewBox="0 0 256 256" fill="none" xmlns="http://www.w3.org/2000/svg">
<path d="M196 0H60C26.8629 0 0 26.8629 0 60V196C0 229.137 26.8629 256 60 256H196C229.137 256 256 229.137 256 196V60C256 26.8629 229.137 0 196 0Z" fill="#398CCB"/>
<path fill-rule="evenodd" clip-rule="evenodd" d="M127.696 38L163.235 58.504V69.778L206.25 94.619V137.112L217.789 143.773V184.804L182.273 205.307L166.506 196.189L128.169 218.323L90.0621 196.317L74.5156 205.307L39 184.769V143.773L50.0886 137.372V94.619L92.1806 70.319L92.2041 70.318V58.504L127.696 38ZM163.235 80.4395V99.5115L127.719 120.016L92.2041 99.5115V80.968L92.1806 80.969L59.3191 99.95V132.042L74.5156 123.269L110.031 143.773V184.769L99.2861 190.982L128.169 207.661L157.282 190.856L146.758 184.769V143.773L182.273 123.269L197.019 131.783V99.95L163.235 80.4395ZM155.989 179.484V154.458L177.658 166.965V191.992L155.989 179.484ZM208.558 154.423L186.889 166.931V191.992L208.558 179.45V154.423ZM48.2308 179.45V154.423L69.9001 166.931V191.958L48.2308 179.45ZM100.8 154.423L79.1306 166.931V191.958L100.8 179.45V154.423ZM160.604 146.462L182.273 133.954L203.942 146.462L182.273 158.981L160.604 146.462ZM74.5156 133.919L52.8461 146.462L74.5156 158.946L96.1846 146.462L74.5156 133.919ZM101.435 94.181V69.154L123.081 81.673V106.688L101.435 94.181ZM153.981 69.154L132.335 81.673V106.677L153.981 94.181V69.154ZM106.05 61.169L127.696 48.6615L149.366 61.169L127.696 73.677L106.05 61.169Z" fill="white"/>
</svg>

<svg xmlns="http://www.w3.org/2000/svg" width="256" height="256" fill="none"><path fill="#398CCB" d="M196 0H60C26.863 0 0 26.863 0 60v136c0 33.137 26.863 60 60 60h136c33.137 0 60-26.863 60-60V60c0-33.137-26.863-60-60-60"/><path fill="#fff" fill-rule="evenodd" d="m127.696 38 35.539 20.504v11.274l43.015 24.841v42.493l11.539 6.661v41.031l-35.516 20.503-15.767-9.118-38.337 22.134-38.107-22.006-15.546 8.99L39 184.769v-40.996l11.089-6.401V94.619l42.092-24.3.023-.001V58.504zm35.539 42.44v19.072l-35.516 20.504-35.515-20.505V80.969l-.023.001-32.862 18.98v32.092l15.197-8.773 35.515 20.504v40.996l-10.745 6.213 28.883 16.679 29.113-16.805-10.524-6.087v-40.996l35.515-20.504 14.746 8.514V99.95zm-7.246 99.044v-25.026l21.669 12.507v25.027zm52.569-25.061-21.669 12.508v25.061l21.669-12.542zM48.231 179.45v-25.027l21.67 12.508v25.027zm52.569-25.027-21.67 12.508v25.027l21.67-12.508zm59.804-7.961 21.669-12.508 21.669 12.508-21.669 12.519zm-86.088-12.543-21.67 12.543 21.67 12.484 21.669-12.484zm26.919-39.738V69.154l21.646 12.519v25.015zm52.546-25.027-21.646 12.519v25.004l21.646-12.496zm-47.931-7.985 21.646-12.507 21.67 12.507-21.67 12.508z" clip-rule="evenodd"/></svg>
